X: 1
T: The Blacksmith's
R: reel
M: 4/4
L: 1/8
K: Gmaj
dB B2 dBGB | dB B2 ABcA | dB B2 dBGB | cABG ABcA :|
G2 BG DGBG | G2 BG ABcA | G2 BG DGBG | cABG ABcA :|


Tune 3636	Setting 16640

